X: 24051
T: Lone Shanakyle
R: waltz
M: 3/4
K: Gmajor
(B,C)|:DG- G3A|GF-F2GA|Bc-c2B2|A4 BA|GD-D3E|CD-D2DE|
=F3 D DC|D4 B,C|DG-G3 A|GF-F2 GA|B3 c B2|A4 BA|G3 F D2|C3 A, D2|1 D6-|D4 (B,C):|2 G,12||

